src/assets/images/free-demat-compaign/free-demat-account-with-zero-auto-square-off-charges.svg

<svg width="109" height="108" viewBox="0 0 109 108" fill="none" xmlns="http://www.w3.org/2000/svg">
<path d="M107.866 50.8264C107.359 48.3186 106.288 46.0925 104.569 44.2046C102.822 42.2603 102.231 40.0905 102.71 37.4981C104.09 29.721 100.089 22.93 92.6499 20.2813C90.3111 19.4359 88.7613 17.8861 87.9442 15.5191C85.4645 8.3337 78.3354 4.16333 70.84 5.54406C68.1631 6.02309 65.9652 5.40317 63.9082 3.65612C58.188 -1.21871 50.0727 -1.21871 44.3525 3.65612C42.2955 5.40317 40.0976 6.02309 37.4207 5.51588C29.9252 4.13515 22.7962 8.3337 20.3165 15.491C19.4993 17.8579 17.9495 19.4077 15.6107 20.2531C8.08714 22.93 4.11402 29.8337 5.57928 37.6672C6.00196 40.006 5.52293 42.0912 3.94495 43.8382C1.83158 46.177 0.563564 48.8821 0.169069 52.0381C0.169069 52.2072 0.0563564 52.3762 0 52.5171V55.4758C0.140891 56.0958 0.281782 56.6875 0.394495 57.3074C0.901702 59.7589 1.97247 61.9568 3.66317 63.8166C5.43839 65.7609 5.97378 67.9588 5.52293 70.523C4.1422 78.3002 8.1435 85.0629 15.5825 87.7399C17.9213 88.5852 19.4711 90.135 20.2883 92.502C22.7398 99.6311 29.8689 103.83 37.2798 102.477C39.9849 101.998 42.2673 102.533 44.2961 104.365C46.4095 106.253 48.9455 107.352 51.7634 107.803C51.9606 107.831 52.1578 107.915 52.3551 108H55.7365C56.4128 107.831 57.089 107.69 57.7653 107.521C60.1323 106.901 62.2175 105.802 64.049 104.196C65.9088 102.533 68.0504 101.998 70.5019 102.477C78.1945 103.914 85.2391 99.8283 87.8596 92.4174C88.6768 90.1068 90.2266 88.5852 92.5372 87.7681C99.4127 85.3165 103.273 79.4555 102.85 72.2137C102.794 71.4811 102.625 70.7484 102.512 70.0158C102.202 68.0433 102.512 66.1554 103.808 64.6619C106.119 62.0414 107.613 59.1108 108.035 55.6449C108.035 55.5885 108.092 55.5322 108.148 55.4477V52.4889C108.007 51.9254 107.894 51.3336 107.753 50.7701L107.866 50.8264ZM50.4953 64.4083C50.4108 68.6914 48.4665 71.9601 44.3243 73.6226C40.4921 75.1442 36.0399 74.1862 33.3066 71.312C31.3623 69.255 30.6015 66.7471 30.6015 63.9856C30.6015 60.6043 30.6015 57.2511 30.6015 53.8697C30.6015 50.291 30.4888 46.7124 30.6015 43.1056C30.7424 39.1888 32.7431 36.2865 36.2653 34.624C39.7876 32.9614 43.2817 33.3278 46.4377 35.6384C49.0301 37.5545 50.4108 40.2032 50.439 43.4156C50.4953 50.4038 50.5517 57.3919 50.439 64.3801L50.4953 64.4083ZM56.0746 36.9628C56.1592 35.1312 57.5117 33.9195 59.3433 33.9759C61.0903 34.004 62.3302 35.2721 62.3865 37.0755C62.3865 37.639 62.3865 38.2026 62.3865 38.7662C62.3865 39.3579 62.3865 39.9496 62.3865 40.5414C62.302 42.2603 60.9494 43.6128 59.2869 43.641C57.6526 43.6692 56.1873 42.3448 56.0746 40.6259C56.0183 39.4143 56.0183 38.1744 56.0746 36.9346V36.9628ZM62.3584 71.7346C61.8793 72.9463 61.1185 73.8762 59.7378 74.0734C57.2017 74.4679 55.3983 72.0728 56.3564 69.6213C57.709 66.1835 59.0897 62.774 60.4704 59.3644C63.57 51.6436 66.6414 43.9228 69.741 36.2301C70.361 34.6803 71.3754 33.9477 72.8125 33.9477C74.5877 33.9477 75.9402 35.3284 75.9402 37.4136C75.8839 37.639 75.7994 38.1462 75.6021 38.6253C71.1781 49.6711 66.7542 60.6888 62.3302 71.7346H62.3584ZM75.9684 69.2268C75.9684 69.9594 76.0248 70.6921 75.9684 71.4247C75.8275 72.89 74.6159 73.9607 73.1506 74.0734C71.4881 74.1862 70.051 73.2845 69.8819 71.7628C69.6847 70.1567 69.6847 68.466 69.8819 66.8598C70.051 65.3382 71.629 64.2956 73.0943 64.4083C74.7004 64.5492 75.9121 65.7327 76.0248 67.3389C76.0811 67.9588 76.0248 68.6069 76.0248 69.2268H75.9684Z" fill="url(#paint0_linear_258_91)"/>
<path d="M42.3242 40.485C39.8445 39.1888 37.0549 40.795 36.9985 43.6409C36.914 47.0787 36.9985 50.5164 36.9985 53.9542C36.9985 57.4201 36.9703 60.9142 36.9985 64.3801C36.9985 66.6344 38.4919 68.0714 40.6053 68.0433C42.6623 68.0433 44.1839 66.6062 44.1839 64.4365C44.2121 57.5328 44.2121 50.601 44.1839 43.6973C44.1839 42.3166 43.6204 41.1613 42.3242 40.5132V40.485Z" fill="url(#paint1_linear_258_91)"/>
<defs>
<linearGradient id="paint0_linear_258_91" x1="54.074" y1="0" x2="54.074" y2="108" gradientUnits="userSpaceOnUse">
<stop stop-color="#8EF8AA"/>
<stop offset="1" stop-color="#00EFD1"/>
</linearGradient>
<linearGradient id="paint1_linear_258_91" x1="40.583" y1="40.0303" x2="40.583" y2="68.0437" gradientUnits="userSpaceOnUse">
<stop stop-color="#8EF8AA"/>
<stop offset="1" stop-color="#00EFD1"/>
</linearGradient>
</defs>
</svg>

<svg width="109" height="108" fill="none" xmlns="http://www.w3.org/2000/svg"><path d="M107.866 50.826c-.507-2.507-1.578-4.733-3.297-6.621-1.747-1.945-2.338-4.114-1.859-6.707 1.38-7.777-2.621-14.568-10.06-17.217-2.339-.845-3.889-2.395-4.706-4.762-2.48-7.185-9.609-11.356-17.104-9.975-2.677.48-4.875-.14-6.932-1.888-5.72-4.875-13.835-4.875-19.556 0-2.056 1.747-4.254 2.367-6.931 1.86-7.496-1.38-14.625 2.818-17.104 9.975-.818 2.367-2.367 3.917-4.706 4.762-7.524 2.677-11.497 9.58-10.032 17.414.423 2.339-.056 4.424-1.634 6.171-2.113 2.339-3.381 5.044-3.776 8.2 0 .17-.113.338-.169.48v2.958c.14.62.282 1.212.394 1.831.508 2.452 1.578 4.65 3.27 6.51 1.774 1.944 2.31 4.142 1.859 6.706-1.38 7.777 2.62 14.54 10.06 17.217 2.338.845 3.888 2.395 4.705 4.762 2.452 7.13 9.58 11.328 16.992 9.975 2.705-.479 4.987.056 7.016 1.888 2.114 1.888 4.65 2.987 7.467 3.438.198.028.395.112.592.197h3.382c.676-.169 1.352-.31 2.028-.479a15.226 15.226 0 0 0 6.284-3.325c1.86-1.663 4.001-2.198 6.453-1.719 7.693 1.437 14.737-2.649 17.358-10.06.817-2.31 2.367-3.832 4.677-4.649 6.876-2.451 10.736-8.313 10.313-15.554-.056-.733-.225-1.466-.338-2.198-.31-1.973 0-3.86 1.296-5.354 2.311-2.62 3.805-5.551 4.227-9.017 0-.056.057-.113.113-.197v-2.96c-.141-.563-.254-1.154-.395-1.718l.113.056zm-57.37 13.582c-.085 4.283-2.03 7.552-6.172 9.215-3.832 1.521-8.284.563-11.017-2.311-1.945-2.057-2.706-4.565-2.706-7.326V53.87c0-3.579-.112-7.158 0-10.764.141-3.917 2.142-6.82 5.664-8.482 3.523-1.663 7.017-1.296 10.173 1.014 2.592 1.916 3.973 4.565 4.001 7.778.056 6.988.113 13.976 0 20.964l.056.028zm5.579-27.445c.084-1.832 1.437-3.044 3.268-2.987 1.747.028 2.987 1.296 3.043 3.1v3.465c-.084 1.72-1.437 3.072-3.1 3.1-1.633.028-3.099-1.296-3.211-3.015a40.356 40.356 0 0 1 0-3.691v.028zm6.283 34.772c-.479 1.211-1.24 2.141-2.62 2.338-2.536.395-4.34-2-3.382-4.452 1.353-3.438 2.734-6.847 4.114-10.257 3.1-7.72 6.171-15.441 9.271-23.134.62-1.55 1.634-2.282 3.072-2.282 1.775 0 3.127 1.38 3.127 3.466-.056.225-.14.732-.338 1.211-4.424 11.046-8.848 22.064-13.272 33.11h.028zm13.61-2.508c0 .732.057 1.465 0 2.198-.14 1.465-1.352 2.536-2.817 2.648-1.663.113-3.1-.788-3.27-2.31a20.391 20.391 0 0 1 0-4.903c.17-1.522 1.748-2.564 3.213-2.452 1.606.141 2.818 1.325 2.93 2.93.057.62 0 1.269 0 1.889h-.056z" fill="url(#a)"/><path d="M42.324 40.485c-2.48-1.296-5.27.31-5.325 3.156-.085 3.438 0 6.875 0 10.313 0 3.466-.029 6.96 0 10.426 0 2.254 1.493 3.691 3.606 3.663 2.057 0 3.579-1.437 3.579-3.607.028-6.903.028-13.835 0-20.739 0-1.38-.564-2.536-1.86-3.184v-.028z" fill="url(#b)"/><defs><linearGradient id="a" x1="54.074" y1="0" x2="54.074" y2="108" gradientUnits="userSpaceOnUse"><stop stop-color="#8EF8AA"/><stop offset="1" stop-color="#00EFD1"/></linearGradient><linearGradient id="b" x1="40.583" y1="40.03" x2="40.583" y2="68.044" gradientUnits="userSpaceOnUse"><stop stop-color="#8EF8AA"/><stop offset="1" stop-color="#00EFD1"/></linearGradient></defs></svg>
